svgs/regular/file-lock.svg

<svg xmlns="http://www.w3.org/2000/svg" viewBox="0 0 576 512"><!--! Font Awesome Pro 6.6.0 by @fontawesome - https://fontawesome.com License - https://fontawesome.com/license (Commercial License) Copyright 2024 Fonticons, Inc. --><path d="M320 464L64 464c-8.8 0-16-7.2-16-16L48 64c0-8.8 7.2-16 16-16l160 0 0 80c0 17.7 14.3 32 32 32l80 0 0 149.7c4.6-5.2 10-9.6 16-13.1l0-24.6c0-30.5 12.2-58.2 32-78.4l0-39.1c0-17-6.7-33.3-18.7-45.3L274.7 18.7C262.7 6.7 246.5 0 229.5 0L64 0C28.7 0 0 28.7 0 64L0 448c0 35.3 28.7 64 64 64l256 0c2.8 0 5.6-.2 8.3-.5c-5.3-9.3-8.3-20-8.3-31.5l0-16zM464 240c17.7 0 32 14.3 32 32l0 48-64 0 0-48c0-17.7 14.3-32 32-32zm-80 32l0 48c-17.7 0-32 14.3-32 32l0 128c0 17.7 14.3 32 32 32l160 0c17.7 0 32-14.3 32-32l0-128c0-17.7-14.3-32-32-32l0-48c0-44.2-35.8-80-80-80s-80 35.8-80 80z"/></svg>

<svg xmlns="http://www.w3.org/2000/svg" viewBox="0 0 576 512"><!--! Font Awesome Pro 6.5.2 by @fontawesome - https://fontawesome.com License - https://fontawesome.com/license (Commercial License) Copyright 2024 Fonticons, Inc. --><path d="M320 464H64c-8.8 0-16-7.2-16-16V64c0-8.8 7.2-16 16-16H224v80c0 17.7 14.3 32 32 32h80V309.7c4.6-5.2 10-9.6 16-13.1V272c0-30.5 12.2-58.2 32-78.4V154.5c0-17-6.7-33.3-18.7-45.3L274.7 18.7C262.7 6.7 246.5 0 229.5 0H64C28.7 0 0 28.7 0 64V448c0 35.3 28.7 64 64 64H320c2.8 0 5.6-.2 8.3-.5c-5.3-9.3-8.3-20-8.3-31.5V464zM464 240c17.7 0 32 14.3 32 32v48H432V272c0-17.7 14.3-32 32-32zm-80 32v48c-17.7 0-32 14.3-32 32V480c0 17.7 14.3 32 32 32H544c17.7 0 32-14.3 32-32V352c0-17.7-14.3-32-32-32V272c0-44.2-35.8-80-80-80s-80 35.8-80 80z"/></svg>
